X: 16420
T: H. Mackworth
R: strathspey
M: 4/4
K: Gminor
L:1/16
|:DF3 B3c d4 d3c|B4 B3g fd3 d3E|DF3 B3c d4 f4|((3=e2f2g2) ((3c2d2_e2) ((3A2B2c2) ((3F2G2E2)|
DF3 B3c d4 d3c|B4 B3g fd3 d3f|((3=e2f2g2) ((3c2d2_e2) ((3d2f2b2) ((3d2c2B2)|1 ((3A2B2c2) ((3F2G2A2) BB,3 B,2FE:|2 ((3A2B2c2) ((3F2G2A2) BB,3 B,2G2||
|:f3B AB3 F3B DB3|DB,3 F3D B3F dB3|c3C =B,C3 E3C G3E|c3G e3c g3f =ef3|
dB3 AB3 F3B DB3|DB,3 F3D B3F d3B|((3c2=B2c2) ((3C2=B,2C2) ((3E2D2E2) ((3G2F2G2)|1 ((3A2g2f2) ((3e2d2c2) dB3 B2g2:|2 ((3A2g2f2) ((3e2d2c2) dB3 B4||

